X:9166
T:Lady Montgomerie
R:Reel
O:Scotland
M:4/4
K:Bb
B2BF DEFD|B2BG ABcd|B2BF DEFD|CccB ABcd|\
B2BF DEFD|B2BG ABcd|
B2BF DEFD|CccB ABcd|\
B2fB dBfB|B2fB defg|B2fB dBfB|edcB ABcd|
B2fB dBfB|B2fB defg|fdec dBcA\
|1 BGFD Cccd :|2 BGFD B,4 ||


